X: 33239
T: Pull The Knife And Stick It Again
R: jig
M: 6/8
K: Eminor
B3 dcB|AFB AFA|B3 dcB|efd edc|
B3 dcB|AFB ABc|dcB cBA|FBA B3:|
|:baf fec|efe cBA|baf fec|efg a3|baf fec|
BAc ABc|dcB cBA|FBA B2A:|
baf fec|efe cBA|baf fec|efg a3|
baf fec|BAc ABc|dcd ede|f3 edc|

